src/resources/icons-social-media/src/social-media/instagram-negative.svg

<?xml version="1.0" encoding="UTF-8" ?>
<svg
  width="48px"
  height="48px"
  viewBox="0 0 48 48"
  version="1.1"
  xmlns="http://www.w3.org/2000/svg"
  xmlns:xlink="http://www.w3.org/1999/xlink"
>
    <title>EC/Icons/Social/2XL_48x48px/Icon-Instagram/Negative</title>
    <defs>
        <polygon id="path-1" points="2 2 46 2 46 46 2 46" />
    </defs>
    <g
    id="EC/Icons/Social/2XL_48x48px/Icon-Instagram/Negative"
    stroke="none"
    stroke-width="1"
    fill="none"
    fill-rule="evenodd"
  >
        <mask id="mask-2" fill="white">
            <use xlink:href="#path-1" />
        </mask>
        <g id="Clip-2" />
        <path
      d="M24.0000437,2 C18.0251587,2 17.2759621,2.02532847 14.9294281,2.13240674 C12.5877846,2.239223 10.9885261,2.61120209 9.58916404,3.15515274 C8.14246955,3.71735734 6.9155825,4.46970013 5.69245059,5.69289036 C4.46940602,6.91616794 3.71715283,8.14320111 3.15501517,9.59006791 C2.6111293,10.9895967 2.23919451,12.5890456 2.13239097,14.930968 C2.02532545,17.2777814 2,18.0270673 2,24.0026639 C2,29.9781731 2.02532545,30.727459 2.13239097,33.0742724 C2.23919451,35.4161947 2.6111293,37.0156437 3.15501517,38.4151725 C3.71715283,39.8620393 4.46940602,41.0890724 5.69245059,42.31235 C6.9155825,43.5355402 8.14246955,44.287883 9.58916404,44.850175 C10.9885261,45.3940383 12.5877846,45.7660174 14.9294281,45.8728336 C17.2759621,45.9799119 18.0251587,46.0052404 24.0000437,46.0052404 C29.9748413,46.0052404 30.7240379,45.9799119 33.0705719,45.8728336 C35.4122154,45.7660174 37.0114739,45.3940383 38.410836,44.850175 C39.8575305,44.287883 41.0844175,43.5355402 42.3075494,42.31235 C43.530594,41.0890724 44.2828472,39.8620393 44.8450722,38.4151725 C45.3888707,37.0156437 45.7608055,35.4161947 45.867609,33.0742724 C45.9746746,30.727459 46,29.9781731 46,24.0026639 C46,18.0270673 45.9746746,17.2777814 45.867609,14.930968 C45.7608055,12.5890456 45.3888707,10.9895967 44.8450722,9.59006791 C44.2828472,8.14320111 43.530594,6.91616794 42.3075494,5.69289036 C41.0844175,4.46970013 39.8575305,3.71735734 38.410836,3.15515274 C37.0114739,2.61120209 35.4122154,2.239223 33.0705719,2.13240674 C30.7240379,2.02532847 29.9748413,2 24.0000437,2 Z M24.0000437,5.96442899 C29.8742381,5.96442899 30.5700767,5.98687525 32.8898879,6.09273077 C35.0348662,6.19055105 36.1997495,6.54899252 36.9749703,6.85031393 C38.0018736,7.24945562 38.7347397,7.72624216 39.5045461,8.49622753 C40.2744398,9.26612556 40.7511695,9.99907896 41.1502637,11.0261046 C41.4515492,11.8014177 41.809948,12.9664398 41.9077566,15.1116735 C42.0135995,17.431761 42.0360431,18.1276825 42.0360431,24.0026639 C42.0360431,29.8775579 42.0135995,30.5734793 41.9077566,32.8935668 C41.809948,35.0388006 41.4515492,36.2038227 41.1502637,36.9791358 C40.7511695,38.0061614 40.2744398,38.7391148 39.5045461,39.5090128 C38.7347397,40.2789982 38.0018736,40.7557848 36.9749703,41.1549264 C36.1997495,41.4562479 35.0348662,41.8146893 32.8898879,41.9125096 C30.570426,42.0183651 29.8746747,42.0408114 24.0000437,42.0408114 C18.1253253,42.0408114 17.4296613,42.0183651 15.1101121,41.9125096 C12.9651338,41.8146893 11.8002505,41.4562479 11.0250297,41.1549264 C9.99812639,40.7557848 9.26526027,40.2789982 8.49545392,39.5090128 C7.72564758,38.7391148 7.24883048,38.0061614 6.84973633,36.9791358 C6.5484508,36.2038227 6.19005202,35.0388006 6.09224339,32.8935668 C5.98640047,30.5734793 5.96395688,29.8775579 5.96395688,24.0026639 C5.96395688,18.1276825 5.98640047,17.431761 6.09224339,15.1116735 C6.19005202,12.9664398 6.5484508,11.8014177 6.84973633,11.0261046 C7.24883048,9.99907896 7.72556025,9.26612556 8.49545392,8.49622753 C9.26526027,7.72624216 9.99812639,7.24945562 11.0250297,6.85031393 C11.8002505,6.54899252 12.9651338,6.19055105 15.1101121,6.09273077 C17.4299233,5.98687525 18.1257619,5.96442899 24.0000437,5.96442899 L24.0000437,5.96442899 Z"
      id="Fill-1"
      fill="#FFFFFF"
      mask="url(#mask-2)"
    />
        <path
      d="M24.5000444,31.964917 C20.377221,31.964917 17.035083,28.622779 17.035083,24.5000444 C17.035083,20.377221 20.377221,17.035083 24.5000444,17.035083 C28.622779,17.035083 31.964917,20.377221 31.964917,24.5000444 C31.964917,28.622779 28.622779,31.964917 24.5000444,31.964917 Z M24.5000444,13 C18.1486845,13 13,18.1486845 13,24.5000444 C13,30.8513155 18.1486845,36 24.5000444,36 C30.8513155,36 36,30.8513155 36,24.5000444 C36,18.1486845 30.8513155,13 24.5000444,13 L24.5000444,13 Z"
      id="Fill-4"
      fill="#FFFFFF"
      mask="url(#mask-2)"
    />
        <path
      d="M38,12.5000413 C38,13.8807661 36.8806834,15 35.4999587,15 C34.1193166,15 33,13.8807661 33,12.5000413 C33,11.1193166 34.1193166,10 35.4999587,10 C36.8806834,10 38,11.1193166 38,12.5000413"
      id="Fill-5"
      fill="#FFFFFF"
      mask="url(#mask-2)"
    />
    </g>
</svg>

<?xml version="1.0" encoding="UTF-8" ?>
<svg
  xmlns="http://www.w3.org/2000/svg"
  xmlns:xlink="http://www.w3.org/1999/xlink"
  viewBox="0 0 48 48"
><defs><style
    >.cls-1{fill:none;}.cls-2{mask:url(#mask);}.cls-3{fill:#fff;fill-rule:evenodd;}</style><mask
      id="mask"
      x="2"
      y="2"
      width="44"
      height="44"
      maskUnits="userSpaceOnUse"
    /></defs><g id="transparant_bg"><rect
      class="cls-1"
      y="0"
      width="48"
      height="48"
    /></g><g id="Layer_1"><g
      id="Component_type_Icons_Icon_type_Social_Size_2XL_48x48px_Subject_Icon-Instagram_Style_Negative_Webtools_False"
    ><g class="cls-2"><g><path
            id="Fill_1"
            class="cls-3"
            d="M24,2c-5.97,0-6.72,.03-9.07,.13-2.34,.11-3.94,.48-5.34,1.02-1.45,.56-2.67,1.31-3.9,2.54-1.22,1.22-1.98,2.45-2.54,3.9-.54,1.4-.92,3-1.02,5.34-.11,2.35-.13,3.1-.13,9.07s.03,6.72,.13,9.07c.11,2.34,.48,3.94,1.02,5.34,.56,1.45,1.31,2.67,2.54,3.9,1.22,1.22,2.45,1.98,3.9,2.54,1.4,.54,3,.92,5.34,1.02,2.35,.11,3.1,.13,9.07,.13s6.72-.03,9.07-.13c2.34-.11,3.94-.48,5.34-1.02,1.45-.56,2.67-1.31,3.9-2.54,1.22-1.22,1.98-2.45,2.54-3.9,.54-1.4,.92-3,1.02-5.34,.11-2.35,.13-3.1,.13-9.07s-.03-6.72-.13-9.07c-.11-2.34-.48-3.94-1.02-5.34-.56-1.45-1.31-2.67-2.54-3.9-1.22-1.22-2.45-1.98-3.9-2.54-1.4-.54-3-.92-5.34-1.02-2.35-.11-3.1-.13-9.07-.13Zm0,3.96c5.87,0,6.57,.02,8.89,.13,2.15,.1,3.31,.46,4.09,.76,1.03,.4,1.76,.88,2.53,1.65,.77,.77,1.25,1.5,1.65,2.53,.3,.78,.66,1.94,.76,4.09,.11,2.32,.13,3.02,.13,8.89s-.02,6.57-.13,8.89c-.1,2.15-.46,3.31-.76,4.09-.4,1.03-.88,1.76-1.65,2.53-.77,.77-1.5,1.25-2.53,1.65-.78,.3-1.94,.66-4.09,.76-2.32,.11-3.02,.13-8.89,.13s-6.57-.02-8.89-.13c-2.14-.1-3.31-.46-4.09-.76-1.03-.4-1.76-.88-2.53-1.65-.77-.77-1.25-1.5-1.65-2.53-.3-.78-.66-1.94-.76-4.09-.11-2.32-.13-3.02-.13-8.89s.02-6.57,.13-8.89c.1-2.15,.46-3.31,.76-4.09,.4-1.03,.88-1.76,1.65-2.53,.77-.77,1.5-1.25,2.53-1.65,.78-.3,1.94-.66,4.09-.76,2.32-.11,3.02-.13,8.89-.13Z"
          /><path
            id="Fill_4"
            class="cls-3"
            d="M24.5,31.96c-4.12,0-7.46-3.34-7.46-7.46s3.34-7.46,7.46-7.46,7.46,3.34,7.46,7.46-3.34,7.46-7.46,7.46Zm0-18.96c-6.35,0-11.5,5.15-11.5,11.5s5.15,11.5,11.5,11.5,11.5-5.15,11.5-11.5-5.15-11.5-11.5-11.5Z"
          /><path
            id="Fill_5"
            class="cls-3"
            d="M38,12.5c0,1.38-1.12,2.5-2.5,2.5s-2.5-1.12-2.5-2.5,1.12-2.5,2.5-2.5,2.5,1.12,2.5,2.5Z"
          /></g></g></g></g></svg>
